X: 1
T: The Green Fields of America
M: 6/8
L: 1/8
R: jig
K: Gmaj
cec BdB|AGA BGE|DEG AGA|BdB AGE|
cec BdB|AGA BGE|DEG AGA|1 BGF G2z:|2 BGF G2D||
GBd gfg|ede gdB|GBd gdB|AGA BGE|
GBd gfg|ede gdB|GAB AGA|1 BGF G2D:|2 BGF G2z||
